svg/SJJB-OpenStreetMapIcons/shopping/jewelry.svg

<?xml version="1.0" encoding="UTF-8" standalone="no"?>
<!-- Created with Inkscape (http://www.inkscape.org/) -->
<svg
   xmlns:dc="http://purl.org/dc/elements/1.1/"
   xmlns:cc="http://creativecommons.org/ns#"
   xmlns:rdf="http://www.w3.org/1999/02/22-rdf-syntax-ns#"
   xmlns:svg="http://www.w3.org/2000/svg"
   xmlns="http://www.w3.org/2000/svg"
   xmlns:sodipodi="http://sodipodi.sourceforge.net/DTD/sodipodi-0.dtd"
   xmlns:inkscape="http://www.inkscape.org/namespaces/inkscape"
   version="1.0"
   width="580"
   height="580"
   id="svg2"
   sodipodi:version="0.32"
   inkscape:version="0.46"
   sodipodi:docname="shopping_jewelry.svg"
   sodipodi:docbase="s:\Data\FacilityIcons"
   inkscape:output_extension="org.inkscape.output.svg.inkscape">
  <metadata
     id="metadata2975">
    <rdf:RDF>
      <cc:Work
         rdf:about="">
        <dc:format>image/svg+xml</dc:format>
        <dc:type
           rdf:resource="http://purl.org/dc/dcmitype/StillImage" />
        <cc:license
           rdf:resource="http://web.resource.org/cc/PublicDomain" />
        <dc:language>en</dc:language>
      </cc:Work>
    </rdf:RDF>
  </metadata>
  <sodipodi:namedview
     inkscape:window-height="978"
     inkscape:window-width="1400"
     inkscape:pageshadow="2"
     inkscape:pageopacity="0.0"
     guidetolerance="10.0"
     gridtolerance="10.0"
     objecttolerance="10.0"
     borderopacity="1.0"
     bordercolor="#666666"
     pagecolor="#ffffff"
     id="base"
     inkscape:zoom="1.8433542"
     inkscape:cx="181.98368"
     inkscape:cy="442.3878"
     inkscape:window-x="0"
     inkscape:window-y="45"
     inkscape:current-layer="svg2"
     showgrid="false" />
  <defs
     id="defs4">
    <inkscape:perspective
       sodipodi:type="inkscape:persp3d"
       inkscape:vp_x="0 : 290 : 1"
       inkscape:vp_y="6.1230318e-14 : 1000 : 0"
       inkscape:vp_z="580 : 290 : 1"
       inkscape:persp3d-origin="290 : 193.33333 : 1"
       id="perspective2441" />
    <inkscape:perspective
       id="perspective3452"
       inkscape:persp3d-origin="30 : 20 : 1"
       inkscape:vp_z="60 : 30 : 1"
       inkscape:vp_y="0 : 1000 : 0"
       inkscape:vp_x="0 : 30 : 1"
       sodipodi:type="inkscape:persp3d" />
    <symbol
       viewBox="244.5 110 489 219.9"
       id="symbol-university">
      <path
         id="path4460"
         d="M79,43l57,119c0,0,21-96,104-96s124,106,124,106l43-133l82-17L0,17L79,43z" />
      <path
         id="path4462"
         d="M94,176l-21,39"
         stroke-width="20"
         stroke="#000000"
         fill="none" />
      <path
         id="path4464"
         d="M300,19c0,10.5-22.6,19-50.5,19S199,29.5,199,19s22.6-19,50.5-19S300,8.5,300,19z" />
      <path
         id="path4466"
         d="M112,216l-16-38L64,88c0,0-9-8-4-35s16-24,16-24"
         stroke-width="20"
         stroke="#000000"
         ill="none" />
    </symbol>
    <inkscape:perspective
       id="perspective4471"
       inkscape:persp3d-origin="372.04724 : 350.78739 : 1"
       inkscape:vp_z="744.09448 : 526.18109 : 1"
       inkscape:vp_y="0 : 1000 : 0"
       inkscape:vp_x="0 : 526.18109 : 1"
       sodipodi:type="inkscape:persp3d" />
    <inkscape:perspective
       id="perspective4668"
       inkscape:persp3d-origin="6 : 4 : 1"
       inkscape:vp_z="12 : 6 : 1"
       inkscape:vp_y="0 : 1000 : 0"
       inkscape:vp_x="0 : 6 : 1"
       sodipodi:type="inkscape:persp3d" />
  </defs>
  <g
     id="g1327">
    <path
       d="M 66.275,1.768 C 24.94,1.768 1.704,23.139 1.704,66.804 L 1.704,516.927 C 1.704,557.771 22.599,579.156 63.896,579.156 L 515.92,579.156 C 557.227,579.156 578.149,558.841 578.149,516.927 L 578.149,66.804 C 578.149,24.203 557.227,1.768 514.628,1.768 C 514.624,1.768 66.133,1.625 66.275,1.768 z "
       style="fill:#111;stroke:#eee;stroke-width:3.40799999"
       id="path1329" />
  </g>
  <g
     id="layer3"
     inkscape:label="Layout"
     style="display:none;stroke:#757575;stroke-opacity:1"
     transform="matrix(48.14969,0,0,48.14969,-536.27327,-33.306752)">
    <rect
       style="fill:none;stroke:#757575;stroke-width:0.10000000000000001;stroke-miterlimit:4;stroke-dasharray:none;stroke-opacity:1;display:inline"
       id="rect4134"
       width="10"
       height="10"
       x="1"
       y="1" />
    <rect
       style="fill:none;stroke:#757575;stroke-width:0.10000000000000001;stroke-miterlimit:4;stroke-dasharray:none;stroke-opacity:1;display:inline"
       id="rect4136"
       width="8"
       height="8"
       x="2"
       y="2" />
  </g>
  <g
     id="g3338"
     transform="matrix(1.3973279,-0.2437849,0.2437849,1.3973279,-185.07402,-56.183307)" />
  <path
     sodipodi:type="arc"
     style="opacity:1;fill:none;fill-opacity:1;stroke:#ffffff;stroke-width:60.38683701;stroke-linecap:round;stroke-linejoin:round;stroke-miterlimit:4;stroke-dasharray:none;stroke-dashoffset:0;stroke-opacity:1"
     id="path7112"
     sodipodi:cx="277.75455"
     sodipodi:cy="326.11499"
     sodipodi:rx="180.10646"
     sodipodi:ry="180.10646"
     d="M 457.86101,326.11499 A 180.10646,180.10646 0 1 1 97.648087,326.11499 A 180.10646,180.10646 0 1 1 457.86101,326.11499 z"
     transform="matrix(0.7459895,0,0,0.7459895,87.91225,101.97486)" />
  <g
     id="g7124"
     transform="matrix(1.3954028,0,0,1.3954028,-121.6059,-34.815923)"
     style="opacity:0.4">
    <path
       sodipodi:nodetypes="cccccc"
       id="path7114"
       d="M 256.9241,180.04181 L 216.43814,104.89486 L 266.99629,71.76582 L 315.50158,71.76582 L 319.87526,172.48768 L 256.9241,180.04181 z"
       style="fill:#ffffff;fill-opacity:1;fill-rule:evenodd;stroke:#ffffff;stroke-width:11.60412884000000000;stroke-linecap:butt;stroke-linejoin:miter;stroke-miterlimit:4;stroke-dasharray:none;stroke-opacity:1" />
    <path
       style="fill:#ffffff;fill-opacity:1;fill-rule:evenodd;stroke:#ffffff;stroke-width:11.60412884000000000;stroke-linecap:butt;stroke-linejoin:miter;stroke-miterlimit:4;stroke-dasharray:none;stroke-opacity:1"
       d="M 340.71544,180.04181 L 381.2014,104.89486 L 330.64326,71.765815 L 274.13796,71.765815 L 277.76429,172.48768 L 340.71544,180.04181 z"
       id="path7116"
       sodipodi:nodetypes="cccccc" />
  </g>
  <path
     style="opacity:0.6;fill:none;fill-opacity:1;fill-rule:evenodd;stroke:#ffffff;stroke-width:16.19243431;stroke-linecap:butt;stroke-linejoin:miter;stroke-miterlimit:4;stroke-dasharray:none;stroke-opacity:1"
     d="M 250.95343,65.343467 L 180.42266,111.56575 L 236.90149,216.43565 L 295.36838,209.38708 L 353.83528,216.43565 L 410.31411,111.56575 L 339.78334,65.343467 L 318.63767,65.343467 L 260.93888,65.343467 L 250.95343,65.343467 z"
     id="path7951" />
  <path
     id="path7960"
     d="M 250.95343,123.1778 L 180.42266,111.56575 L 236.90149,216.43565 L 295.36838,209.38708 L 353.83528,216.43565 L 410.31411,111.56575 L 339.78334,123.1778 L 250.95343,123.1778 z"
     style="opacity:0.6;fill:none;fill-opacity:1;fill-rule:evenodd;stroke:#ffffff;stroke-width:16.19216728;stroke-linecap:butt;stroke-linejoin:bevel;stroke-miterlimit:4;stroke-dasharray:none;stroke-opacity:1"
     sodipodi:nodetypes="cccccccc" />
  <path
     id="path7962"
     d="M 249.82386,123.13262 L 236.90149,216.43565 L 295.36838,209.38708 L 353.83528,216.43565 L 343.8518,123.62407 L 336.89163,65.343467 L 255.15546,65.343467 L 249.82386,123.13262 z"
     style="opacity:0.6;fill:none;fill-opacity:1;fill-rule:evenodd;stroke:#ffffff;stroke-width:16.19243431;stroke-linecap:butt;stroke-linejoin:miter;stroke-miterlimit:4;stroke-dasharray:none;stroke-opacity:1"
     sodipodi:nodetypes="cccccccc" />
</svg>

<svg xmlns="http://www.w3.org/2000/svg" viewBox="0 0 580 580"><path d="m66.28 1.768c-41.34 0-64.57 21.371-64.57 65.04v450.12c0 40.844 20.895 62.23 62.19 62.23h452.02c41.31 0 62.23-20.315 62.23-62.23v-450.12c0-42.601-20.922-65.04-63.52-65.04-.004 0-448.5-.143-448.35 0z" fill="#111" stroke="#eee" stroke-width="3.408"/><g stroke="#fff"><path d="M457.86101 326.11499A180.10646 180.10646 0 1 1 97.64809 326.11499 180.10646 180.10646 0 1 1 457.86101 326.11499z" transform="matrix(.74599 0 0 .74599 87.91 101.97)" fill="none" stroke-linejoin="round" stroke-linecap="round" stroke-width="60.39"/><g transform="matrix(1.3954 0 0 1.3954-121.61-34.816)" opacity=".4" fill="#fff" fill-rule="evenodd" stroke-width="11.604"><path d="m256.92 180.04l-40.486-75.15 50.558-33.13h48.51l4.374 100.72-62.951 7.554z"/><path d="m340.72 180.04l40.486-75.15-50.558-33.13h-56.51l3.626 100.72 62.951 7.554z"/></g><g fill="none" fill-rule="evenodd" stroke-width="16.192"><path d="m250.95 65.34l-70.53 46.22 56.48 104.87 58.47-7.05 58.47 7.05 56.48-104.87-70.53-46.22h-21.15-57.699-9.985z" opacity=".6"/><path d="m250.95 123.18l-70.53-11.612 56.48 104.87 58.47-7.05 58.47 7.05 56.48-104.87-70.53 11.612h-88.83z" opacity=".6" stroke-linejoin="bevel"/><path d="m249.82 123.13l-12.922 93.3 58.47-7.05 58.47 7.05-9.983-92.81-6.96-58.28h-81.74l-5.332 57.789z" opacity=".6"/></g></g></svg>
